X:72
T:Poor Mary Ann
O:No 72 Wm Clarke MS  Feltwell, Norfolk
N:aka All Through the Night
N:aka Ar Hyd y Nos
I:abc2nwc
M:2/4
L:1/16
K:D
d3c B2d2|e3d c2A2|B4c4|d2d2 d2 z2:|
|:g3f g3a|b3a g3f|g2f2 e2d2|f2e2 d2c2|
d3c B2d2|e3d c2A2|B4c4|d2d2 d2 z2:|

